X:1
T:Adoramus Te
T:Lassus arr from five voices BMarble
T:Adoramus Te
T:Copyright © 2015 by CPDL.  This edition can be fully distributed, duplicated, performed, and recorded. 
T:Copyright © 2015 by CPDL.  This edition can be fully distributed, duplicated, performed, and recorded. 
T:Copyright © 2015 by CPDL.  This edition can be fully distributed, duplicated, performed, and recorded. 
T:Copyright © 2015 by CPDL.  This edition can be fully distributed, duplicated, performed, and recorded. 
T:Copyright © 2015 by CPDL.  This edition can be fully distributed, duplicated, performed, and recorded. 
C:Lassus
C:arr from five voices BMarble
Z:Copyright © 2015 by CPDL.  This edition can be fully distributed, duplicated, performed, and recorded.
Z:
%%score [ 1 2 3 4 ]
L:1/8
Q:1/2=76
M:4/2
K:Bb
V:1 treble nm="Soprano" snm="S."
V:2 treble nm="Alto" snm="A."
V:3 treble-8 transpose=-12 nm="Tenor" snm="T."
V:4 bass nm="Bass" snm="B."
V:1
 z16 | z16 | G12 G4 | E8 D4 G4 | (^F8 G8) | ^F8 z8 | z4 G4 G4 G4 | =E6 E2 F8 | F4 F4 D6 D2 | %9
w: ||A- do-|ra- mus te,|Chri- *|ste,|et be- ne-|di- ci- mus|be- ne- di- ci-|
 C8 F8 | D8 z8 | G8 G4 G4 | G4 ^F4 G4 =F4 | G8 C8 | z4 F8 _E4 | D4 D4 B,2 G,2 G4- | G2 ^F=E F4 G8 | %17
w: mus ti-|bi:|qui- a per|tu- am san- ctam|Cru- cem|re- de-|mi- sti mun- * *|* * * * dum.|
 D12 C4 | F4 F4 (E4 D2 C2 | D8) =B,8 | z4 (G8 =F2 =E2 | F4) F4 =E8 | ^F12 F4 | G4 G4 G8 | G16- | %25
w: re- de-|mi- sti mun- * *|* dum.|Do- * *|* mi- ne,|mi- se-|re- re no-|bis.|
 G16 |] %26
w: _|
V:2
 z8 D8- | D4 D4 B,8- | B,8 B,8 | C4 G,6 A,2 B,2 C2 | D2 A,2 D6 CB, C4 | D8 z4 D4 | D4 D4 =E6 E2 | %7
w: A-|* do- ra-|* mus|te, Chri- * * *||ste, et|be- ne- di- ci-|
 G4 C4 C4 C4 | D6 D2 F8 | F8 D8 | G,8 G,8 | z4 G,8 G,4- | G,4 A,4 =B,4 D4 | =E2 F4 E2 F4 C4 | %14
w: mus, et be- ne-|di- ci- mus|ti- bi:|qui- a|per tu-|* am san- ctam|Cru- * * * cem|
 D12 C4 | F4 F4 (E4 D2 C2 | D12) B,4 | z4 =F8 E4 | D4 D4 B,2 G,2 G4- | G2 ^F=E F4 G8 | D12 A,4 | %21
w: re- de-|mi- sti mun- * *|* dum.|re- de-|mi- sti mun- * *|* * * * dum.|Do- mi-|
 A,4 A,4 A,4 A,4- | A,4 D4 D4 D4 | E8 D8 | C16 | =B,16 |] %26
w: ne, mi- se- re-|* re, mi- se-|re- re|no-|bis.|
V:3
 G12 G4 | (B6 c2 d8) | d8 e4 e4- | (e2 d2 c4) (B6 AG | A8) G8 | A4 A4 A4 A4 | =B6 B2 c4 c4 | %7
w: A- do-|ra- * *|mus te, Chri-|* * * ste, _ _|_ Chri-|ste, et be- ne-|di- ci- mus ti-|
 (G8 A4) A4 | B4 A4 B2 F2 B4- | (B2 AG A4) B8 | B16 | B8 e4 e4 | d4 d4 G4 A4 | c8 A8 | %14
w: bi: _ et|be- ne- di- ci- mus|_ _ _ _ ti-|bi:|qui- a per|tu- am san- ctam|Cru- cem|
 F4 F4 G6 A2 | B2 A2 B4 G8 | A4 d4 (B2 c2 d2 =e2 | f4) F4 G6 A2 | B2 A2 B4 G8 | A4 d8 d4 | %20
w: re- de- mi- *|* * sti mun-|dum, re- de- * * *|* mi- sti _|_ _ _ mun-|dum, Do- mi-|
 G8 A6 A2 | d4 d4 ^c8 | (d6 =cB A8) | c6 c2 d4 G4 | e16 | d16 |] %26
w: ne, mi- se-|re- re no-|bis, _ _ _|mi- se- re- re|no-|bis.|
V:4
 z16 | z8 G,8- | G,4 G,4 E,8 | C,8 G,8 | (D,8 E,8) | D,16 | z8 C,8 | C,4 C,4 F,6 F,2 | D,8 (B,,8 | %9
w: |A-|* do- ra-|mus te,|Chri- *|ste,|et|be- ne- di- ci-|mus ti-|
 F,8) B,,8 | z8 E,8 | E,8 C,8 | G,4 D,4 G,4 D,4 | C,8 F,8 | B,,12 C,4 | D,4 B,,4 E,8 | D,8 z8 | %17
w: * bi:|qui-|a per|tu- am san- ctam|Cru- cem|re- de-|mi- sti mun-|dum.|
 B,,12 C,4 | D,4 B,,4 E,8 | D,8 z4 G,4- | G,4 G,4 D,8- | D,8 z8 | D,12 D,4 | C,8 =B,,8 | C,16 | %25
w: re- de-|mi- sti mun-|dum. Do-|* mi- ne,|_|mi- se-|re- re|no-|
 G,16 |] %26
w: bis.|

